svg/filled/receive.svg

<svg width="24" height="24" viewBox="0 0 24 24" fill="none" xmlns="http://www.w3.org/2000/svg">
<path fill-rule="evenodd" clip-rule="evenodd" d="M5.00004 14.9968C5.41425 14.9968 5.75004 15.3326 5.75004 15.7468V18C5.75004 18.1381 5.86197 18.25 6.00004 18.25H18C18.1381 18.25 18.25 18.1381 18.25 18V15.7468C18.25 15.3326 18.5858 14.9968 19 14.9968C19.4143 14.9968 19.75 15.3326 19.75 15.7468V18C19.75 18.9665 18.9665 19.75 18 19.75H6.00004C5.03354 19.75 4.25004 18.9665 4.25004 18V15.7468C4.25004 15.3326 4.58583 14.9968 5.00004 14.9968Z" fill="black"/>
<path fill-rule="evenodd" clip-rule="evenodd" d="M12.2023 4.25C12.6165 4.25 12.9523 4.58579 12.9523 5V13.0856C12.9523 13.4998 12.6165 13.8356 12.2023 13.8356C11.7881 13.8356 11.4523 13.4998 11.4523 13.0856V5C11.4523 4.58579 11.7881 4.25 12.2023 4.25Z" fill="black"/>
<path fill-rule="evenodd" clip-rule="evenodd" d="M8.32184 10.6256C8.6113 10.3293 9.08615 10.3237 9.38243 10.6132L12.2021 13.368L15.0219 10.6132C15.3181 10.3237 15.793 10.3293 16.0824 10.6256C16.3719 10.9218 16.3664 11.3967 16.0701 11.6861L12.7263 14.953C12.4348 15.2377 11.9694 15.2377 11.678 14.953L8.3342 11.6861C8.03791 11.3967 8.03238 10.9218 8.32184 10.6256Z" fill="black"/>
</svg>

<svg xmlns="http://www.w3.org/2000/svg" viewBox="0 0 24 24" fill="currentColor">
  <path fill-rule="evenodd" d="M5 14.997a.75.75 0 01.75.75V18c0 .138.112.25.25.25h12a.25.25 0 00.25-.25v-2.253a.75.75 0 011.5 0V18A1.75 1.75 0 0118 19.75H6A1.75 1.75 0 014.25 18v-2.253a.75.75 0 01.75-.75zM12.202 4.25a.75.75 0 01.75.75v8.086a.75.75 0 01-1.5 0V5a.75.75 0 01.75-.75z" clip-rule="evenodd"/>
  <path fill-rule="evenodd" d="M8.322 10.626a.75.75 0 011.06-.013l2.82 2.755 2.82-2.755a.75.75 0 111.048 1.073l-3.344 3.267a.75.75 0 01-1.048 0l-3.344-3.267a.75.75 0 01-.012-1.06z" clip-rule="evenodd"/>
</svg>
